X:1
T:Trio Sonata in Eb major
T:III - Allegro
T:Johann Sebastian Bach (1685 - 1750)
T:BWV 525
%%score { 1 | 2 | 3 }
L:1/8
Q:1/4=96
M:3/4
K:Eb
V:1 treble nm="Organ" snm="Org."
V:2 treble 
V:3 bass 
V:1
"^Adagio" Ee Fe Ge | Ae Be ce | B/e/d/c/ B/g/f/e/ d/c/B/A/ | G/A/B/G/ E/G/B/e/ F/=A/c/e/ | %4
 d/c/d/f/ e/d/e/g/ f/e/f/a/ | g/f/g/b/ d/c/d/b/ e/d/e/b/ | df bd c=a | bd fd Bd | e z e z e z | %9
 e z e z e z | z/ e/f/g/ a/b/c'/b/ a/g/f/a/ | gB cA f2- | f/a/g/f/ e/d/c/B/ A/G/A/f/ | %13
 G/f/e/d/ c/B/A/G/ F2- | F/A/G/F/ E2- E/D/E/F/ | =B,D G=B cd | e/c/=B/c/ G/c/B/c/ e/c/B/c/ | %17
 A z c z c z | z/ B/A/B/ F/B/A/B/ d/B/A/B/ | G z _d z d z | z/ A/G/A/ F/A/G/A/ c/A/G/A/ | %21
 F/B/A/B/ d/B/A/B/ f/B/A/B/ | bg e4- | e/d/c/B/ =A/B/A/G/ F/e/d/c/ | B6- | B/=A/B/e/ B/A/B/d/ c2- | %26
 c/g/f/e/ d/b/=a/g/ f/e/d/c/ | Bf gf ge | f/b/=a/b/ e/b/d/b/ e/b/c/b/ | %29
 d2- d/[Q:1/4=60]"^Adagio"B/c/d/ e/f/g/=a/ | bB c z P=A2 | B6 ::[Q:1/4=96]"^Adagio" z6 | z6 | z6 | %35
 z6 | bB aB gB | fB eB dB | e/B/c/d/ e/G/A/B/ c/d/e/f/ | g/f/e/g/ b/g/e/B/ g/e/_d/B/ | %40
 c/_d/c/A/ B/c/B/G/ A/B/A/F/ | G/A/G/E/ c/_d/c/E/ B/c/B/E/ | cA cE Fd | %43
 z/ e/f/g/ a/b/c'/b/ a/g/f/a/ | gc f A2 f | G/B/c/d/ e/f/g/a/ b/c'/b/c/ | %46
 a/g/f/=e/ f/_e/_d/c/ B2- | B/A/G/F/ =Ec d=e | f z z4 | z/ B/A/B/ F/B/A/B/ _d/B/A/B/ | %50
 G z _d z d z | z/ A/_G/A/ E/A/G/A/ c/A/G/A/ | F/B/=A/B/ F/B/A/B/ _d/B/_A/B/ | GB e4- | %54
 e/E/_D/E/ A/E/D/E/ c/A/G/A/ | d/e/d/c/ B/g/f/e/ d/c/B/A/ | G/F/G/B/ A/G/A/c/ B/A/B/_d/ | %57
 c/B/c/e/ G/F/G/e/ A/G/A/e/ | G2 z/ g/f/e/ d/c/B/A/ | G/e/d/e/ A/e/G/e/ A/e/F/e/ | Gb c'b c'a | %61
 b/e/f/g/ a2[Q:1/4=60]"^Adagio" a/g/a/f/ | be g z d2 | !fermata!e6 :| %64
V:2
 z6 | z6 | z6 | z6 | B,B CB DB | EB FB GB | F/B/=A/G/ F/d/c/B/ A/G/F/E/ | %7
 D/E/F/D/ B,/D/F/B/ D/F/A/B/ | G/F/G/B/ A/G/A/c/ B/A/B/_d/ | c/B/c/e/ G/F/G/e/ A/G/A/e/ | %10
 GB eG FB | z/ E/F/G/ A/B/c/B/ A/G/F/A/ | GB, CA, F2 | F/A/G/F/ E/D/C/B,/ A,/G,/A,/F/ | %14
[K:bass] G,/F/E/D/ C/B,/A,/G,/ F,2- | F,/A,/G,/F,/ E,G, =A,=B, | C z z4 | %17
[K:treble] z/ F/E/F/ C/F/E/F/ A/F/E/F/ | D z A z A z | z/ E/_D/E/ B,/E/D/E/ G/E/D/E/ | %20
 C/F/=E/F/ C/F/E/F/ A/F/_E/F/ | DF B4- | B/B,/A,/B,/ E/B,/A,/B,/ G/E/D/E/ | %23
 =A/B/A/G/ F/d/c/B/ A/G/F/E/ | D/C/D/F/ E/D/E/G/ F/E/F/A/ | G/F/G/B/ D/C/D/B/ E/D/E/B/ | %26
 D2 z/ d/c/B/ =A/G/F/E/ | D/B/=A/B/ E/B/D/B/ E/B/C/B/ | DF GF GE | F/B,/C/D/ E2- E/D/E/C/ | %30
 FD E z C2 | D6 :: fF eF dF | cF BF =AF | B/F/G/=A/ B/D/E/F/ G/A/B/c/ | %35
 d/c/B/d/ f/d/B/F/ d/B/A/F/ | G/A/G/E/ F/G/F/D/ E/F/E/C/ | D/E/D/B,/ G/A/G/B,/ F/G/F/B,/ | %38
 GE B,G FD | EB GB _dG | A z G z E z | E z E z E z | z/ E/F/G/ A/B/c/B/ A/G/F/A/ | GB, CA, F2- | %44
 F/E/F/G/ =A/=B/c/d/ e/f/e/_A/ | f/G/=A/=B/ c/d/e/f/ g2- | g/B/A/G/ A2- A/A/G/F/ | %47
 =E/F/E/D/ CE FG | A/F/=E/F/ C/F/E/F/ A/F/E/F/ | _D z A z A z | z/ E/_D/E/ B,/E/D/E/ G/E/D/E/ | %51
 C z _G z G z | z/ _D/C/D/ B,/D/C/D/ F/D/C/D/ | B,/E/_D/E/ G/E/D/E/ B/G/F/G/ | ec A4- | %55
 A/G/F/E/ D/E/D/C/ B,/A/G/F/ | E6- | E/D/E/A/ E/D/E/G/ F2- | F/c/B/A/ G/e/d/c/ B/A/G/F/ | %59
 EB cB cA | B/e/d/e/ A/e/G/e/ A/e/F/e/ | G2 G/E/F/G/ A/B/c/d/ | eG A z F2 | G6 :| %64
V:3
 E,4 z2 | C,4 z2 | G,,3 A,, B,,2 | E,,2 G,,2 =A,,2 | B,,4 z2 | B,,4 z2 | B,,2 D,2 F,2 | B,4 z2 | %8
 E,,E, F,,E, G,,E, | A,,E, B,,E, C,E, | B,, z C, z D, z | E,4 D,2 | E,2 A,2 z2 | =B,,2 C,2 D,2 | %14
 E,,2 A,,4 | G,,2 z/ G,/F,/G,/ E,/F,/D,/E,/ | C,E, C,E, C,E, | F,,A, F,,A, F,,A, | %18
 B,,D, B,,D, B,,D, | E,,G, E,,G, E,,G, | A,,C, A,,C, A,,C, | A,,D, A,,D, A,,D, | %22
 G,,E, G,,E, G,,E, | F,,2 z4 | B,,B, C,B, D,B, | E,B, F,B, G,B, | F,B, E,B, F,=A, | B,,2 z4 | %28
 B,,2 z4 | z F, G,F, G,E, | D,G, E, z F,2 | B,,6 :: B,,4 z2 | E,4 z2 | D,2 G,2 F,2 | B,2 D,2 B,,2 | %36
 E,4 z2 | B,4 A,2 | G,2 G,,2 B,,2 | E,,4 z2 | z E, _DE, CE, | B,E, A,E, G,E, | A, z G, z F, z | %43
 E,4 D,2 | E,2 D,2 C,2 | =B,,F, E,D, C,=E, | F,,2 _D,4 | C,2 z/ C/B,/C/ A,/B,/G,/A,/ | %48
 F,A, F,A, F,A, | B,,_D B,,D B,,D | E,G, E,G, E,G, | A,,C A,,C A,,C | _D,F, D,F, D,F, | %53
 _D,G, D,G, D,G, | C,A, C,A, C,A, | B,,2 z4 | E,,E, F,,E, G,,E, | A,,E, B,,E, C,E, | %58
 B,,E, A,,E, B,,E, | E,,2 z4 | E,,2 z4 | z B, CB, CA, | G,C A, z B,2 | !fermata!E,6 :| %64

